; HEADER_BLOCK_START
; generated by OrcaSlicer 2.0.0 on 2024-05-29 at 23:58:01
; total layer number: 21
; filament_density: 1.24,1.24,1.24,1.24
; filament_diameter: 1.75,1.75,1.75,1.75
; max_z_height: 5.10
; HEADER_BLOCK_END

; THUMBNAIL_BLOCK_START

;
; THUMBNAIL_BLOCK_END

; THUMBNAIL_BLOCK_START

;
; THUMBNAIL_BLOCK_END

; external perimeters extrusion width = 0.42mm
; perimeters extrusion width = 0.45mm
; infill extrusion width = 0.45mm
; solid infill extrusion width = 0.42mm
; top infill extrusion width = 0.42mm
; first layer extrusion width = 0.50mm

; external perimeters extrusion width = 0.42mm
; perimeters extrusion width = 0.45mm
; infill extrusion width = 0.45mm
; solid infill extrusion width = 0.42mm
; top infill extrusion width = 0.42mm
; first layer extrusion width = 0.50mm

; external perimeters extrusion width = 0.42mm
; perimeters extrusion width = 0.45mm
; infill extrusion width = 0.45mm
; solid infill extrusion width = 0.42mm
; top infill extrusion width = 0.42mm
; first layer extrusion width = 0.50mm

; external perimeters extrusion width = 0.42mm
; perimeters extrusion width = 0.45mm
; infill extrusion width = 0.45mm
; solid infill extrusion width = 0.42mm
; top infill extrusion width = 0.42mm
; first layer extrusion width = 0.50mm

; EXECUTABLE_BLOCK_START
EXCLUDE_OBJECT_DEFINE NAME=multi_material_test_1_id_0_copy_0 CENTER=110,110 POLYGON=[[87.3412,95.9309],[87.4609,93.9019],[87.9741,91.9353],[88.8611,90.1066],[90.0878,88.486],[91.6071,87.136],[93.3606,86.1082],[95.2809,85.4423],[97.2942,85.1638],[116.917,85.1639],[118.931,85.4424],[120.851,86.1083],[122.605,87.136],[124.124,88.4861],[125.351,90.1066],[126.238,91.9353],[132.301,110.598],[132.659,112.599],[132.619,114.631],[132.183,116.616],[131.369,118.478],[130.207,120.146],[128.742,121.555],[112.866,133.089],[111.073,134.047],[109.129,134.637],[107.106,134.836],[105.083,134.637],[103.138,134.047],[101.346,133.089],[99.7746,131.799],[98.4852,130.228],[97.5271,128.436],[87.6197,97.9442],[87.3412,95.9309]]
M73 P0 R47
M106 S0
M106 P2 S0
;TYPE:Custom
M140 S0
M104 S0 
T1 MIN_TEMP=220
START_PRINT EXTRUDER_TEMP=220 BED_TEMP=60
M106 P3 S153
G90
G21
M83 ; use relative distances for extrusion
; MANUAL_TOOL_CHANGE T1
; filament start gcode
SET_PRESSURE_ADVANCE ADVANCE=0.04; Override pressure advance value
G1 Z.3 F30000
M106 S0
M106 P2 S0
;LAYER_CHANGE
;Z:0.3
;HEIGHT:0.3
;BEFORE_LAYER_CHANGE
;0.3
G92 E0

;_SET_FAN_SPEED_CHANGING_LAYER
SET_VELOCITY_LIMIT ACCEL=500 ACCEL_TO_DECEL=250
SET_VELOCITY_LIMIT SQUARE_CORNER_VELOCITY=9
G1 E-.6 F2400
EXCLUDE_OBJECT_START NAME=multi_material_test_1_id_0_copy_0
G1 X112.731 Y114.304 F30000
G1 Z.5
G1 Z.3
G1 E.6 F2400
;TYPE:Inner wall
;WIDTH:0.5
;HEIGHT:0.3
G1 F3600
G1 X113.534 Y110.557 E.20406
G1 X115.087 Y107.053 E.20406
G1 X123.599 Y104.277 E.47673
G1 X125.178 Y104.623 E.0861
G1 X126.838 Y105.349 E.09646
G1 X128.325 Y106.385 E.09646
G1 X129.58 Y107.691 E.09646
G1 X130.557 Y109.217 E.09646
G1 X131.217 Y110.904 E.09646
G1 X131.536 Y112.687 E.09646
G1 X131.5 Y114.499 E.09646
G1 X131.112 Y116.268 E.09646
G1 X130.386 Y117.928 E.09646
G1 X129.35 Y119.414 E.09646
G1 X128.044 Y120.67 E.09646
G1 X126.518 Y121.647 E.09646
G1 X124.831 Y122.307 E.09646
G1 X123.048 Y122.625 E.09646
G1 X121.237 Y122.59 E.09646
G1 X119.467 Y122.201 E.09646
G1 X117.986 Y121.553 E.0861
G1 X112.755 Y114.336 E.4746
G1 X112.265 Y114.403 F30000
G1 F3600
G1 X113.118 Y110.422 E.21679
G1 X114.767 Y106.699 E.21679
G1 X123.577 Y103.826 E.49337
G1 X125.314 Y104.207 E.09469
G1 X127.052 Y104.967 E.10103
G1 X128.609 Y106.052 E.10103
G1 X129.924 Y107.42 E.10103
G1 X130.947 Y109.018 E.10103
G1 X131.638 Y110.785 E.10103
G1 X131.972 Y112.653 E.10103
G1 X131.935 Y114.55 E.10103
G1 X131.528 Y116.403 E.10103
G1 X130.768 Y118.142 E.10103
G1 X129.683 Y119.698 E.10103
G1 X128.315 Y121.014 E.10103
G1 X126.717 Y122.037 E.10103
G1 X124.95 Y122.728 E.10103
G1 X123.082 Y123.062 E.10103
G1 X121.185 Y123.024 E.10103
G1 X119.332 Y122.618 E.10103
G1 X117.702 Y121.905 E.09469
G1 X112.288 Y114.435 E.49124
G1 X111.798 Y114.501 F30000
;TYPE:Outer wall
G1 F3600
G1 X112.701 Y110.286 E.22952
G1 X114.448 Y106.345 E.22952
G1 X123.554 Y103.375 E.51002
G1 X125.449 Y103.791 E.10329
G1 X127.266 Y104.586 E.1056
G1 X128.893 Y105.72 E.1056
G1 X130.268 Y107.149 E.1056
G1 X131.337 Y108.82 E.1056
G1 X132.06 Y110.666 E.1056
G1 X132.408 Y112.619 E.1056
G1 X132.369 Y114.602 E.1056
G1 X131.944 Y116.539 E.1056
G1 X131.15 Y118.356 E.1056
G1 X130.016 Y119.983 E.1056
G1 X128.586 Y121.357 E.1056
G1 X126.916 Y122.427 E.1056
G1 X125.069 Y123.149 E.1056
G1 X123.117 Y123.498 E.1056
G1 X121.134 Y123.459 E.1056
G1 X119.196 Y123.034 E.1056
G1 X117.419 Y122.257 E.10329
G1 X111.821 Y114.533 E.50789
G1 E-.42 F2400
;WIPE_START
G1 F3600
G1 X112.024 Y113.554 E-.18
;WIPE_END
G17
G3 Z.5 I.168 J.585 P1  F30000
G1 X129.857 Y108.448 Z.5
G1 Z.3
G1 E.6 F2400
;TYPE:Bottom surface
;WIDTH:0.507542
G1 F6300
G1 X128.067 Y106.657 E.13718
G1 X126.656 Y105.674 E.09312
G1 X126.302 Y105.519 E.02095
G1 X130.262 Y109.478 E.30331
G1 X130.665 Y110.508 E.0599
G1 X125.188 Y105.032 E.41952
G1 X125.064 Y104.977 E.00737
G1 X124.35 Y104.821 E.03954
G1 X130.93 Y111.4 E.50399
G1 X131.066 Y112.163 E.04198
G1 X123.577 Y104.674 E.57371
G1 X123.104 Y104.828 E.02693
G1 X131.161 Y112.885 E.61723
G1 X131.149 Y113.5 E.0333
G1 X122.631 Y104.982 E.65251
G1 X122.159 Y105.136 E.02693
G1 X131.137 Y114.114 E.68779
G3 X131.08 Y114.684 I-1.461 J.142 E.03122
G1 X121.686 Y105.29 E.71963
G1 X121.214 Y105.444 E.02693
G1 X130.967 Y115.198 E.74719
G1 X130.855 Y115.712 E.0285
G1 X120.741 Y105.599 E.77475
G1 X120.269 Y105.753 E.02693
G1 X130.731 Y116.215 E.80147
G1 X130.54 Y116.651 E.02578
G1 X119.796 Y105.907 E.82306
G1 X119.323 Y106.061 E.02693
G1 X130.349 Y117.087 E.84465
M73 P0 R46
G1 X130.159 Y117.523 E.02578
G1 X118.851 Y106.215 E.86625
G1 X118.378 Y106.369 E.02693
G1 X129.935 Y117.926 E.88534
G1 X129.678 Y118.296 E.02438
G1 X117.906 Y106.523 E.90183
G1 X117.433 Y106.678 E.02693
G1 X129.421 Y118.665 E.91831
G1 X129.163 Y119.034 E.02438
G1 X116.96 Y106.832 E.9348
G1 X116.488 Y106.986 E.02693
G1 X128.867 Y119.365 E.9483
G1 X128.547 Y119.672 E.02401
G1 X116.015 Y107.14 E.96003
G1 X115.543 Y107.294 E.02693
G1 X128.228 Y119.979 E.97175
G1 X127.908 Y120.287 E.02401
G1 X115.241 Y107.619 E.97037
G1 X115.049 Y108.054 E.02573
G1 X127.545 Y120.55 E.95727
G1 X127.163 Y120.794 E.02458
G1 X114.856 Y108.488 E.94274
G1 X114.664 Y108.922 E.02573
G1 X126.781 Y121.039 E.92821
G1 X126.399 Y121.284 E.02458
G1 X114.471 Y109.356 E.91368
G1 X114.279 Y109.791 E.02573
G1 X125.957 Y121.469 E.89459
G1 X125.506 Y121.645 E.0262
G1 X114.086 Y110.225 E.87483
G1 X113.894 Y110.659 E.02573
G1 X125.056 Y121.821 E.85507
G1 X124.73 Y121.949 E.01895
G1 X124.583 Y121.975 E.0081
G1 X113.781 Y111.173 E.8275
G1 X113.67 Y111.689 E.02859
G1 X124.051 Y122.07 E.79524
G1 X123.52 Y122.165 E.02926
G1 X113.56 Y112.205 E.76298
G1 X113.449 Y112.721 E.02859
G1 X122.982 Y122.254 E.73024
G1 X122.342 Y122.241 E.03464
G1 X113.338 Y113.237 E.68974
G1 X113.228 Y113.753 E.02859
G1 X121.703 Y122.229 E.64924
G1 X121.28 Y122.22 E.0229
G1 X121.008 Y122.161 E.01508
G1 X113.285 Y114.437 E.59166
G1 X114.936 Y116.715 E.15236
G1 X120.205 Y121.984 E.4037
G1 X119.582 Y121.848 E.03457
G1 X119.333 Y121.739 E.01472
G1 X115.706 Y118.112 E.27781
G1 E-.42 F2400
;WIPE_START
G1 F6300
G1 X116.414 Y118.819 E-.18
;WIPE_END
G17
G3 Z.5 I.493 J.357 P1  F30000
G1 X126.099 Y105.423 Z.5
G1 Z.3
G1 E.6 F2400
;TYPE:Gap infill
;WIDTH:0.286332
G1 F3600
G1 X125.961 Y105.328 E.00456
;WIDTH:0.237853
G1 X125.822 Y105.234 E.00356
;WIDTH:0.189374
G1 X125.683 Y105.139 E.00257
;WIDTH:0.165134
G1 X125.544 Y105.044 E.00207
G1 E-.48799 F2400
;WIPE_START
G1 F3600
G1 X125.683 Y105.139 E-.11201
;WIPE_END
G17
G3 Z.5 I-.483 J-.37 P1  F30000
G1 X115.801 Y118.018 Z.5
G1 Z.3
G1 E.6 F2400
;WIDTH:0.209251
G1 F3600
G1 X115.625 Y117.812 E.00479
;WIDTH:0.172212
G1 X115.45 Y117.606 E.00356
;WIDTH:0.153693
G1 X115.274 Y117.401 E.00295
G1 E-.42 F2400
;WIPE_START
G1 F3600
G1 X115.45 Y117.606 E-.18
;WIPE_END
G17
G3 Z.5 I-.462 J.396 P1  F30000
G1 X118.977 Y121.726 Z.5
G1 Z.3
G1 E.6 F2400
;WIDTH:0.139361
G1 F3600
G1 X118.873 Y121.655 E.00116
;WIDTH:0.184775
G1 X118.769 Y121.584 E.00186
;WIDTH:0.230189
G1 X118.664 Y121.513 E.00256
;WIDTH:0.275602
G1 X118.56 Y121.442 E.00326
;WIDTH:0.321016
G1 X118.456 Y121.371 E.00396
;WIDTH:0.36643
G1 X118.352 Y121.299 E.00466
;WIDTH:0.411844
G1 X118.247 Y121.228 E.00536
;WIDTH:0.411844
G1 X118.059 Y121.007 E.01236
;WIDTH:0.36643
G1 X117.87 Y120.785 E.01075
;WIDTH:0.321016
G1 X117.681 Y120.564 E.00913
;WIDTH:0.275603
G1 X117.492 Y120.342 E.00751
;WIDTH:0.230189
G1 X117.303 Y120.121 E.0059
;WIDTH:0.184775
G1 X117.114 Y119.9 E.00428
;WIDTH:0.162068
G1 X116.925 Y119.678 E.00348
G1 E-.42 F2400
;WIPE_START
G1 F3600
G1 X117.114 Y119.9 E-.18
;WIPE_END
G17
G3 Z.5 I.39 J.467 P1  F30000
G1 X130.136 Y109.006 Z.5
G1 Z.3
G1 E.6 F2400
;WIDTH:0.140295
G1 F3600
G1 X129.99 Y108.825 E.00216
;WIDTH:0.187576
G1 X129.844 Y108.644 E.0035
;WIDTH:0.211216
G1 X129.763 Y108.543 E.00234
G1 E-.51323 F2400
;WIPE_START
G1 F3600
G1 X129.844 Y108.644 E-.08677
;WIPE_END
EXCLUDE_OBJECT_END NAME=multi_material_test_1_id_0_copy_0
G1 Z.5 F30000
G1 X204.75 Y204.75 Z.5
G1 Z.3
G1 E.6 F2400
;HEIGHT:0.3
;TYPE:Prime tower
;WIDTH:0.5
;--------------------
; CP TOOLCHANGE START
; toolchange #1
; material : PLA -> PLA
;--------------------
M220 S100
; CP TOOLCHANGE UNLOAD
;WIDTH:0.6
;WIDTH:0.5
; Retract(unload)
G1  X204.750 Y204.750 E-15.0000 F7200
G1 E-14.0000 F5400
G1 E-4.0000 F2700
G1 E-2.0000 F1620
M104 S220
; Cooling park
G4 S1.000
G4 S0
; filament end gcode 
PARK
FILAMENT_CUT
T3
G1 X200 F6000
FILAMENT_LOAD2
PURGE_CUT
CONTINUE
M106 P2 S0
M106 S0
; MANUAL_TOOL_CHANGE T3
; filament start gcode
SET_PRESSURE_ADVANCE ADVANCE=0.04; Override pressure advance value

G1 F30000
G1  X204.250 Y203.900  
G4 S0
; CP TOOLCHANGE LOAD
G1 E0.0020 F1200
G1  X204.246  E0.0070 F3000
G1  X204.250  E0.0010 F2100
G1  Y204.400 
; CP TOOLCHANGE WIPE
G1  X85.250  E7.6294 F1188
M73 P1 R46
G1  X86.000 Y203.900   E0.0578
G1  X204.750  E7.6134 F1350
G1 F30000
G4 S0
G92 E0
; CP TOOLCHANGE END
;------------------


G1  X85.500 Y180.900   F7200
;HEIGHT:0.3
;TYPE:Prime tower
;WIDTH:0.5
G1  X204.500  E6.4656 F3600
G1  Y187.400  E0.3532
G1  X85.500  E6.4656
G1  Y180.900  E0.3532
G1  X204.500 
G1  Y187.400 
G1  X203.500 
;--------------------
; CP EMPTY GRID START
; layer #1
G1  Y186.900  E0.0272
G1  X86.000  E6.3841
G1  Y186.400  E0.0272
G1  X204.000  E6.4113
G1  Y185.900  E0.0272
G1  X86.000  E6.4113
G1  Y185.400  E0.0272
G1  X204.000  E6.4113
G1  Y184.900  E0.0272
G1  X86.000  E6.4113
G1  Y184.400  E0.0272
G1  X204.000  E6.4113
M73 P2 R46
G1  Y183.900  E0.0272
G1  X86.000  E6.4113
G1  Y183.400  E0.0272
G1  X204.000  E6.4113
G1  Y182.900  E0.0272
G1  X86.000  E6.4113
G1  Y182.400  E0.0272
G1  X204.000  E6.4113
G1  Y181.900  E0.0272
G1  X86.000  E6.4113
G1  Y181.400  E0.0272
G1  X204.000  E6.4113
G1  Y180.900  E0.0272
; CP EMPTY GRID END
;------------------






G1  X205.000 Y180.400  
G1  Y205.000  E1.3366
G1  X85.000  E6.5199
M73 P2 R45
G1  Y180.400  E1.3366
G1  X205.000  E6.5199
G1  X205.436 Y179.964  
G1  Y205.436  E1.3839
G1  X84.564  E6.5673
G1  Y179.964  E1.3839
G1  X205.436  E6.5673
G1  X205.871 Y179.529  
G1  Y205.871  E1.4313
G1  X84.129  E6.6146
G1  Y179.529  E1.4313
G1  X205.871  E6.6146
M73 P3 R45
G1  X206.307 Y179.093  
G1  Y206.307  E1.4786
G1  X83.693  E6.6620
G1  Y179.093  E1.4786
G1  X206.307  E6.6620
G1  X206.742 Y178.658  
G1  Y206.742  E1.5259
G1  X83.258  E6.7093
G1  Y178.658  E1.5259
G1  X206.742  E6.7093
G1  X207.178 Y178.222  
G1  Y207.178  E1.5733
G1  X82.822  E6.7566
G1  Y178.222  E1.5733
G1  X207.178  E6.7566
G1  X207.614 Y177.786  
G1  Y207.614  E1.6206
G1  X82.386  E6.8040
G1  Y177.786  E1.6206
G1  X207.614  E6.8040
G1  X208.049 Y177.351  
G1  Y208.049  E1.6679
G1  X81.951  E6.8513
G1  Y177.351  E1.6679
G1  X208.049  E6.8513

SET_PRESSURE_ADVANCE ADVANCE=0.04; Override pressure advance value
M73 P4 R45
G1 E-.42 F2400
;WIPE_START
G1 F3600
G1 X207.049 Y177.351 E-.18
;WIPE_END
EXCLUDE_OBJECT_START NAME=multi_material_test_1_id_0_copy_0
G17
G3 Z.5 I.368 J-.484 P1  F30000
G1 X105.984 Y100.441 Z.5
G1 Z.3
G1 E.6 F2400
;TYPE:Inner wall
;WIDTH:0.5
;HEIGHT:0.3
G1 F3600
G1 X103.133 Y103 E.20398
G1 X99.817 Y104.922 E.20406
G1 X91.299 Y102.164 E.47673
G1 X90.225 Y100.956 E.0861
G1 X89.309 Y99.393 E.09646
G1 X88.715 Y97.681 E.09646
G1 X88.467 Y95.887 E.09646
G1 X88.574 Y94.078 E.09646
G1 X89.031 Y92.325 E.09646
G1 X89.822 Y90.695 E.09646
G1 X90.915 Y89.251 E.09646
G1 X92.269 Y88.047 E.09646
G1 X93.832 Y87.131 E.09646
G1 X95.544 Y86.538 E.09644
G1 X97.344 Y86.29 E.09677
G1 X99.147 Y86.396 E.09616
G1 X100.9 Y86.854 E.09646
G1 X102.53 Y87.644 E.09646
G1 X103.974 Y88.738 E.09646
G1 X105.174 Y90.088 E.09618
G1 X105.974 Y91.483 E.0856
G1 X105.984 Y100.401 E.47489
G1 X106.42 Y100.635 F30000
G1 F3600
G1 X103.39 Y103.354 E.21675
G1 X99.868 Y105.396 E.21679
G1 X91.052 Y102.542 E.49337
G1 X89.871 Y101.213 E.09469
G1 X88.911 Y99.576 E.10103
G1 X88.29 Y97.783 E.10103
G1 X88.03 Y95.904 E.10103
G1 X88.141 Y94.01 E.10103
G1 X88.62 Y92.174 E.10103
G1 X89.448 Y90.467 E.10103
G1 X90.594 Y88.954 E.10103
G1 X92.012 Y87.693 E.10103
G1 X93.649 Y86.734 E.10103
G1 X95.442 Y86.112 E.10102
G1 X97.327 Y85.853 E.10134
G1 X99.215 Y85.964 E.10073
G1 X101.051 Y86.443 E.10103
G1 X102.759 Y87.271 E.10103
G1 X104.271 Y88.416 E.10103
G1 X105.53 Y89.832 E.10086
G1 X106.409 Y91.366 E.09416
G1 X106.42 Y100.595 E.49142
G1 X106.856 Y100.83 F30000
;TYPE:Outer wall
G1 F3600
G1 X103.648 Y103.708 E.22951
G1 X99.918 Y105.87 E.22952
G1 X90.805 Y102.92 E.51002
G1 X89.517 Y101.47 E.10329
G1 X88.514 Y99.759 E.1056
G1 X87.864 Y97.886 E.1056
G1 X87.592 Y95.921 E.1056
G1 X87.709 Y93.941 E.1056
G1 X88.21 Y92.022 E.1056
G1 X89.075 Y90.238 E.1056
G1 X90.272 Y88.657 E.1056
G1 X91.755 Y87.339 E.1056
G1 X93.466 Y86.336 E.1056
G1 X95.339 Y85.687 E.1056
G1 X97.31 Y85.415 E.10591
G1 X99.284 Y85.532 E.10529
G1 X101.203 Y86.032 E.1056
G1 X102.987 Y86.898 E.1056
G1 X104.569 Y88.095 E.1056
G1 X105.885 Y89.576 E.10554
G1 X106.845 Y91.25 E.10272
G1 X106.856 Y100.79 E.50795
G1 E-.42 F2400
;WIPE_START
G1 F3600
G1 X106.116 Y101.463 E-.18
;WIPE_END
G17
G3 Z.5 I.606 J-.05 P1  F30000
G1 X105.213 Y90.506 Z.5
G1 Z.3
G1 E.6 F2400
;TYPE:Bottom surface
;WIDTH:0.507045
G1 F6300
G1 X103.706 Y88.999 E.11531
G1 X102.335 Y87.962 E.09301
G1 X101.767 Y87.686 E.03421
G1 X105.525 Y91.444 E.28759
G1 X105.604 Y91.581 E.00857
G1 X105.604 Y92.149 E.03074
G1 X100.618 Y87.163 E.38158
G1 X99.771 Y86.942 E.04737
G1 X105.605 Y92.776 E.44645
G1 X105.606 Y93.403 E.03391
G1 X98.959 Y86.756 E.50861
G1 X98.294 Y86.717 E.03606
G1 X105.606 Y94.03 E.55957
G1 X105.607 Y94.656 E.03391
G1 X97.628 Y86.678 E.61053
G2 X97.032 Y86.707 I-.225 J1.519 E.03254
G1 X105.608 Y95.283 E.65626
G1 X105.609 Y95.91 E.03391
G1 X96.481 Y86.783 E.69841
G1 X95.931 Y86.858 E.03005
G1 X105.609 Y96.537 E.74057
G1 X105.61 Y97.163 E.03391
G1 X95.42 Y86.973 E.77977
G1 X94.955 Y87.134 E.02662
G1 X105.611 Y97.79 E.81539
G1 X105.611 Y98.417 E.03391
G1 X94.49 Y87.295 E.85101
G1 X94.025 Y87.456 E.02662
G1 X105.612 Y99.044 E.88664
G1 X105.613 Y99.67 E.03391
G1 X93.625 Y87.682 E.91732
G1 X93.23 Y87.914 E.02475
G1 X105.603 Y100.286 E.94673
G1 X105.273 Y100.582 E.02399
G1 X92.835 Y88.145 E.95169
G1 X92.448 Y88.384 E.02461
G1 X104.943 Y100.878 E.95606
G1 X104.613 Y101.174 E.02399
G1 X92.117 Y88.678 E.95618
G1 X91.785 Y88.973 E.02399
G1 X104.283 Y101.47 E.9563
G1 X103.953 Y101.766 E.02399
G1 X91.454 Y89.267 E.95641
G1 X91.188 Y89.503 E.01922
G1 X91.135 Y89.574 E.00481
G1 X103.623 Y102.062 E.95559
G1 X103.293 Y102.359 E.02399
G1 X90.865 Y89.931 E.95098
G1 X90.595 Y90.287 E.02418
G1 X102.963 Y102.655 E.94637
G1 X102.914 Y102.699 E.00357
G1 X102.577 Y102.894 E.0211
G1 X90.326 Y90.643 E.93744
G2 X90.076 Y91.02 I.821 J.816 E.0246
G1 X102.18 Y103.124 E.92622
G1 X101.784 Y103.354 E.02479
G1 X89.871 Y91.441 E.91154
G1 X89.667 Y91.863 E.02535
G1 X101.388 Y103.583 E.89686
G1 X100.991 Y103.813 E.02479
G1 X89.463 Y92.284 E.88218
M73 P4 R44
